X:1
T:Chickens In The Garden
M:6/8
Q:1/4=60
K:A
E6|A,2B,C2F|E2FA,2A|A2GB2A|F4GG|G5/8G3/4E5/8G2A2|
B2EEFF|FEAA2C|B,3C2B,|A,2B,C2F|E2A,3A|A2GBAF|
F5A|AB2AFE|A2AA,2C|CD2CB,A,|A,6|C2B,C2F|E3A,2A|
A2BBAF|F5A|G2GG2A|B2BE2F|F2AAC2|B,5B,|C2B,C2F|
E2FA,2E|A2GBAF|F5A|A2BAF2|EA2A,2C|B,6|A,3||
When first I came down Yorkshire, \\
Not many years ago. \\
I met with a little Yorkshire lass, \\
And I'd have you know, \\
That she was so blithe, so buxom, \\
So beautiful and gay, \\
Now listen while I tell you, \\
